Sources/DesignResourcesKit/DesignSystemImages.xcassets/Color/16px/Feedback-Color-16.imageset/Feedback-Color-16.svg

<svg width="16" height="16" viewBox="0 0 16 16" fill="none" xmlns="http://www.w3.org/2000/svg">
<path d="M12.125 1.5H3.875C2.01104 1.5 0.5 3.01104 0.5 4.875V9.42906C0.5 11.1251 1.82531 12.5 3.52134 12.5C3.75831 12.5 4.00006 12.6922 3.97047 12.9273C3.91006 13.4074 3.76472 13.9567 3.60763 14.4535C3.41023 15.0777 3.95352 15.6821 4.56164 15.4396C5.64448 15.0077 7.1348 14.264 8.41105 13.0912C8.80235 12.7317 9.3025 12.5 9.83391 12.5H12.125C13.989 12.5 15.5 10.989 15.5 9.125V4.875C15.5 3.01104 13.989 1.5 12.125 1.5Z" fill="#FFDE7A"/>
<path d="M12.125 1.5H3.875C2.01104 1.5 0.5 3.01104 0.5 4.875V9.42906C0.5 11.1251 1.82531 12.5 3.52134 12.5C3.75831 12.5 4.00006 12.6922 3.97047 12.9273C3.91006 13.4074 3.76472 13.9567 3.60763 14.4535C3.41023 15.0777 3.95352 15.6821 4.56164 15.4396C5.64448 15.0077 7.1348 14.264 8.41105 13.0912C8.80235 12.7317 9.3025 12.5 9.83391 12.5H12.125C13.989 12.5 15.5 10.989 15.5 9.125V4.875C15.5 3.01104 13.989 1.5 12.125 1.5Z" stroke="url(#paint0_linear_9428_4789)"/>
<path d="M9.75391 4.50513L9.91016 4.52563C10.68 4.65639 11.3019 5.21348 11.4609 5.99927C11.6201 6.78676 11.2946 7.67224 10.4541 8.47095L10.2783 8.62915L9.17383 9.57544C8.84114 9.86009 8.40095 9.98184 7.99512 9.98267C7.64011 9.98338 7.25785 9.89147 6.94434 9.677L6.81445 9.57739L5.71777 8.62622C4.7525 7.77404 4.3687 6.82357 4.53906 5.98657C4.7099 5.14795 5.41048 4.58251 6.24609 4.50513L6.42969 4.50024C6.84887 4.51459 7.19497 4.71182 7.45508 4.94263C7.67584 5.13858 7.85568 5.37589 7.99707 5.60083C8.13959 5.37557 8.32106 5.13783 8.54297 4.94165C8.8409 4.67827 9.2513 4.45859 9.75391 4.50513Z" fill="#E2A412" stroke="url(#paint1_linear_9428_4789)" stroke-linecap="round" stroke-linejoin="round"/>
<defs>
<linearGradient id="paint0_linear_9428_4789" x1="8" y1="1.5" x2="8" y2="15.9375" gradientUnits="userSpaceOnUse">
<stop stop-color="#C18010"/>
<stop offset="1" stop-color="#92540C"/>
</linearGradient>
<linearGradient id="paint1_linear_9428_4789" x1="8" y1="4.99927" x2="8" y2="10.0001" gradientUnits="userSpaceOnUse">
<stop stop-color="#C18010"/>
<stop offset="1" stop-color="#92540C"/>
</linearGradient>
</defs>
</svg>

<svg fill="none" viewBox="0 0 16 16" xmlns="http://www.w3.org/2000/svg">
  <path fill="#FFDE7A" d="M12.125 1.5h-8.25A3.375 3.375 0 0 0 .5 4.875v4.554c0 1.696 1.325 3.071 3.021 3.071.237 0 .48.192.45.427-.06.48-.206 1.03-.363 1.527-.198.624.346 1.228.954.986 1.082-.432 2.573-1.176 3.849-2.349.391-.36.892-.591 1.423-.591h2.291A3.375 3.375 0 0 0 15.5 9.125v-4.25A3.375 3.375 0 0 0 12.125 1.5Z"/>
  <path stroke="url(#Feedback-Color-16_svg__a)" d="M12.125 1.5h-8.25A3.375 3.375 0 0 0 .5 4.875v4.554c0 1.696 1.325 3.071 3.021 3.071.237 0 .48.192.45.427-.06.48-.206 1.03-.363 1.527-.198.624.346 1.228.954.986 1.082-.432 2.573-1.176 3.849-2.349.391-.36.892-.591 1.423-.591h2.291A3.375 3.375 0 0 0 15.5 9.125v-4.25A3.375 3.375 0 0 0 12.125 1.5Z"/>
  <path fill="#E2A412" stroke="url(#Feedback-Color-16_svg__b)" stroke-linecap="round" stroke-linejoin="round" d="m9.754 4.505.156.02c.77.131 1.392.688 1.55 1.474.16.788-.165 1.673-1.006 2.472l-.176.158-1.104.946c-.333.285-.773.407-1.179.408a1.87 1.87 0 0 1-1.05-.306l-.13-.1-1.097-.95c-.965-.853-1.35-1.803-1.179-2.64.17-.84.871-1.404 1.707-1.482L6.43 4.5c.419.015.765.212 1.025.443.22.196.4.433.542.658a3.12 3.12 0 0 1 .546-.66c.298-.263.708-.482 1.21-.436Z"/>
  <defs>
    <linearGradient id="Feedback-Color-16_svg__a" x1="8" x2="8" y1="1.5" y2="15.938" gradientUnits="userSpaceOnUse">
      <stop stop-color="#C18010"/>
      <stop offset="1" stop-color="#92540C"/>
    </linearGradient>
    <linearGradient id="Feedback-Color-16_svg__b" x1="8" x2="8" y1="4.999" y2="10" gradientUnits="userSpaceOnUse">
      <stop stop-color="#C18010"/>
      <stop offset="1" stop-color="#92540C"/>
    </linearGradient>
  </defs>
</svg>
